X: 7366
T: Cliffs Of Slieve League, The
R: reel
M: 4/4
K: Dmajor
|:a2ed cAAB|cdef g2 fg|a2 ed cAAB|cdef gfe^g|
aged cAAB|cdef g2 fg|aff/f/f gee/e/e|1 dBGB d3z:|2 dBGB dgfg||
|:eAA/A/A eAfA|edd/d/d cBcd|eAA/A/A agec|dBGB dgfg|
eAA/A/A eAfA|edd/d/d cBcd|eaa/a/^g a=gec|1 dBGB dgfg:|2 dBGBd3 z||

